public/assets/img/home1/icon/node-js-icon.svg

<svg width="24" height="24" viewBox="0 0 24 24" fill="none" xmlns="http://www.w3.org/2000/svg">
<mask id="mask0_1531_62685" style="mask-type:alpha" maskUnits="userSpaceOnUse" x="0" y="0" width="24" height="24">
<rect width="24" height="24" fill="#D9D9D9"/>
</mask>
<g mask="url(#mask0_1531_62685)">
</g>
<g clip-path="url(#clip0_1531_62685)">
<path d="M10.9153 0.304741C11.5078 -0.0344078 12.2796 -0.0359397 12.8716 0.304741C15.8498 1.98763 18.8291 3.66789 21.8069 5.35181C22.367 5.66729 22.7416 6.29061 22.7359 6.93598V17.0609C22.7401 17.733 22.3284 18.3712 21.7375 18.6796C18.769 20.3532 15.802 22.0288 12.834 23.7024C12.2293 24.0482 11.442 24.0216 10.8561 23.6475C9.96619 23.1315 9.0747 22.6182 8.18466 22.1028C8.00278 21.9944 7.79776 21.9081 7.66934 21.7317C7.78287 21.5787 7.98585 21.5596 8.15078 21.4928C8.52227 21.3747 8.86346 21.1851 9.20474 21.0011C9.29104 20.942 9.3964 20.9647 9.47912 21.0175C10.2401 21.4538 10.9944 21.9029 11.758 22.335C11.9209 22.4291 12.0858 22.3042 12.2251 22.2266C15.1381 20.5802 18.0547 18.9401 20.9672 17.2932C21.0751 17.2413 21.1348 17.1267 21.126 17.0085C21.1281 13.6685 21.1265 10.3279 21.127 6.98789C21.1394 6.85376 21.0618 6.73044 20.9405 6.67555C17.9823 5.00959 15.0256 3.34108 12.0679 1.6747C12.0166 1.63947 11.9559 1.62057 11.8938 1.62048C11.8316 1.62038 11.7708 1.63911 11.7195 1.67419C8.76176 3.34108 5.80559 5.01112 2.84789 6.677C2.72704 6.73198 2.64593 6.85325 2.66032 6.98789C2.66083 10.3279 2.66032 13.6685 2.66032 17.009C2.65519 17.0667 2.66786 17.1245 2.69661 17.1748C2.72537 17.2251 2.76884 17.2653 2.82117 17.2901C3.61044 17.7377 4.40074 18.1821 5.19053 18.6281C5.63546 18.8676 6.18176 19.0099 6.67197 18.8264C7.10457 18.6713 7.4078 18.2298 7.39955 17.7705C7.40363 14.45 7.39751 11.129 7.40261 7.809C7.39181 7.66159 7.53163 7.53981 7.67495 7.55368C8.05419 7.55112 8.43393 7.54857 8.81317 7.5547C8.97146 7.55112 9.0804 7.70985 9.06083 7.85836C9.05929 11.1999 9.06491 14.5415 9.05827 17.883C9.05929 18.7736 8.69342 19.7426 7.86968 20.1784C6.85487 20.7041 5.60057 20.5926 4.59802 20.0885C3.7301 19.6553 2.90185 19.1441 2.04934 18.68C1.45691 18.3733 1.04729 17.7326 1.05146 17.061V6.93598C1.04525 6.27725 1.43478 5.64261 2.01232 5.33172C4.98032 3.65674 7.9478 1.98049 10.9153 0.304741Z" fill="#8CC84B"/>
<path d="M13.5045 7.3184C14.799 7.23508 16.1848 7.26904 17.3496 7.90674C18.2515 8.39542 18.7515 9.42104 18.7674 10.423C18.7422 10.5581 18.6009 10.6327 18.4719 10.6234C18.0963 10.6229 17.7207 10.6285 17.3451 10.6209C17.1858 10.627 17.0932 10.4801 17.0732 10.3393C16.9653 9.85985 16.7038 9.38504 16.2526 9.15381C15.5599 8.807 14.7568 8.82445 14.0015 8.83168C13.4501 8.86096 12.8571 8.9087 12.39 9.23296C12.0313 9.47857 11.9224 9.9744 12.0504 10.3737C12.1711 10.6604 12.502 10.753 12.7729 10.8382C14.3329 11.2462 15.986 11.2056 17.5162 11.7426C18.1497 11.9615 18.7695 12.387 18.9863 13.0503C19.27 13.9393 19.1456 15.002 18.5131 15.7157C18.0002 16.303 17.2531 16.6227 16.508 16.7963C15.5168 17.0173 14.4881 17.0229 13.4815 16.9248C12.5349 16.8169 11.5499 16.5682 10.8192 15.9233C10.1943 15.3807 9.88911 14.5353 9.91941 13.7194C9.92665 13.5816 10.0638 13.4856 10.1958 13.4969C10.5741 13.4938 10.9523 13.4928 11.3305 13.4974C11.4815 13.4866 11.5935 13.6171 11.6013 13.7595C11.6711 14.2163 11.8427 14.6957 12.241 14.9665C13.0097 15.4624 13.9742 15.4284 14.8544 15.4423C15.5836 15.41 16.4021 15.4002 16.9972 14.9182C17.3112 14.6433 17.4042 14.1834 17.3193 13.7878C17.2274 13.4537 16.878 13.2981 16.5779 13.1963C15.0379 12.7091 13.3663 12.8859 11.8412 12.335C11.2221 12.1162 10.6233 11.7025 10.3855 11.0664C10.0535 10.1661 10.2056 9.05262 10.9044 8.363C11.5858 7.67704 12.5694 7.41296 13.5045 7.3184Z" fill="#8CC84B"/>
</g>
<defs>
<clipPath id="clip0_1531_62685">
<rect width="21.792" height="24" fill="white" transform="translate(1)"/>
</clipPath>
</defs>
</svg>

<svg xmlns="http://www.w3.org/2000/svg" width="24" height="24" fill="none" viewBox="0 0 24 24">
    <mask id="a" width="24" height="24" x="0" y="0" maskUnits="userSpaceOnUse" style="mask-type:alpha">
        <path fill="#d9d9d9" d="M0 0h24v24H0z"/>
    </mask>
    <g fill="#8cc84b" clip-path="url(#b)">
        <path d="M10.915.305a2 2 0 0 1 1.957 0q4.468 2.523 8.935 5.047c.56.315.935.939.929 1.584v10.125c.004.672-.408 1.31-.998 1.619q-4.453 2.511-8.904 5.022a1.95 1.95 0 0 1-1.978-.055l-2.671-1.544c-.182-.109-.387-.195-.516-.371.114-.153.317-.172.482-.24.371-.117.712-.307 1.054-.49.086-.06.191-.037.274.015.761.437 1.515.886 2.279 1.318.163.094.328-.03.467-.108 2.913-1.647 5.83-3.287 8.742-4.934a.29.29 0 0 0 .159-.284q.001-5.01.001-10.021a.31.31 0 0 0-.186-.312q-4.437-2.5-8.873-5.001a.31.31 0 0 0-.348 0Q7.284 4.175 2.848 6.676a.31.31 0 0 0-.188.31V17.01a.28.28 0 0 0 .161.281q1.185.67 2.37 1.338c.444.24.99.382 1.481.198.433-.155.736-.596.728-1.056.004-3.32-.002-6.641.003-9.961-.011-.147.129-.27.272-.255q.57-.006 1.138 0c.158-.003.267.156.248.304-.002 3.342.004 6.684-.003 10.025.001.89-.365 1.86-1.188 2.295-1.015.526-2.27.415-3.272-.09-.868-.433-1.696-.944-2.549-1.408-.592-.307-1.002-.947-.998-1.619V6.936a1.84 1.84 0 0 1 .961-1.604z"/>
        <path d="M13.505 7.318c1.294-.083 2.68-.049 3.845.589.901.488 1.401 1.514 1.417 2.516-.025.135-.166.21-.295.2-.376 0-.751.006-1.127-.002-.16.006-.252-.14-.272-.282-.108-.48-.37-.954-.82-1.185-.693-.347-1.496-.33-2.251-.322-.552.029-1.145.077-1.612.401-.359.246-.468.741-.34 1.14.121.287.452.38.723.465 1.56.408 3.213.368 4.743.905.634.218 1.254.644 1.47 1.307.284.89.16 1.952-.473 2.666-.513.587-1.26.907-2.005 1.08-.991.221-2.02.227-3.026.129-.947-.108-1.932-.357-2.663-1.002-.625-.542-.93-1.388-.9-2.204.008-.137.145-.233.277-.222q.567-.005 1.135 0c.15-.01.263.12.27.262.07.457.242.937.64 1.207.769.496 1.733.462 2.613.476.73-.032 1.548-.042 2.143-.524.314-.275.407-.735.322-1.13-.092-.334-.441-.49-.741-.592-1.54-.487-3.212-.31-4.737-.861-.619-.219-1.218-.633-1.455-1.269-.332-.9-.18-2.013.518-2.703.682-.686 1.665-.95 2.6-1.045"/>
    </g>
    <defs>
        <clipPath id="b">
            <path fill="#fff" d="M1 0h21.792v24H1z"/>
        </clipPath>
    </defs>
</svg>
